images/svg/telegram.svg

<?xml version="1.0" encoding="UTF-8"?>
<svg xmlns="http://www.w3.org/2000/svg" xmlns:xlink="http://www.w3.org/1999/xlink" width="48pt" height="48pt" viewBox="0 0 48 48" version="1.1">
<g id="surface2342288">
<path style=" stroke:none;fill-rule:nonzero;fill:rgb(0%,73.72549%,83.137255%);fill-opacity:1;" d="M 24 4 C 12.953125 4 4 12.953125 4 24 C 4 35.046875 12.953125 44 24 44 C 35.046875 44 44 35.046875 44 24 C 44 12.953125 35.046875 4 24 4 Z M 24 4 "/>
<path style=" stroke:none;fill-rule:nonzero;fill:rgb(100%,100%,100%);fill-opacity:1;" d="M 33.949219 15 L 30.203125 34.125 C 30.203125 34.125 30.042969 35 28.960938 35 C 28.382812 35 28.085938 34.726562 28.085938 34.726562 L 19.972656 27.992188 L 16.003906 25.992188 L 10.90625 24.636719 C 10.90625 24.636719 10 24.375 10 23.625 C 10 23 10.933594 22.703125 10.933594 22.703125 L 32.25 14.234375 C 32.246094 14.234375 32.898438 14 33.375 14 C 33.667969 14 34 14.125 34 14.5 C 34 14.75 33.949219 15 33.949219 15 Z M 33.949219 15 "/>
<path style=" stroke:none;fill-rule:nonzero;fill:rgb(69.019608%,74.509804%,77.254902%);fill-opacity:1;" d="M 23 30.503906 L 19.574219 33.878906 C 19.574219 33.878906 19.425781 33.992188 19.226562 34 C 19.15625 34 19.082031 33.988281 19.007812 33.957031 L 19.972656 27.992188 Z M 23 30.503906 "/>
<path style=" stroke:none;fill-rule:nonzero;fill:rgb(81.176471%,84.705882%,86.27451%);fill-opacity:1;" d="M 29.898438 18.195312 C 29.726562 17.976562 29.414062 17.9375 29.195312 18.101562 L 16 26 C 16 26 18.105469 31.890625 18.425781 32.910156 C 18.75 33.933594 19.007812 33.957031 19.007812 33.957031 L 19.972656 27.992188 L 29.804688 18.894531 C 30.023438 18.730469 30.0625 18.414062 29.898438 18.195312 Z M 29.898438 18.195312 "/>
</g>
</svg>

<?xml version="1.0" encoding="iso-8859-1"?>
<!-- Generator: Adobe Illustrator 22.1.0, SVG Export Plug-In . SVG Version: 6.00 Build 0)  -->
<svg xmlns="http://www.w3.org/2000/svg" xmlns:xlink="http://www.w3.org/1999/xlink" version="1.1" id="Layer_1" x="0px" y="0px" viewBox="0 0 48 48" style="enable-background:new 0 0 48 48;" xml:space="preserve" width="48px" height="48px">
<circle style="fill:#29B6F6;" cx="24" cy="24" r="20"/>
<path style="fill:#FFFFFF;" d="M33.95,15l-3.746,19.126c0,0-0.161,0.874-1.245,0.874c-0.576,0-0.873-0.274-0.873-0.274l-8.114-6.733  l-3.97-2.001l-5.095-1.355c0,0-0.907-0.262-0.907-1.012c0-0.625,0.933-0.923,0.933-0.923l21.316-8.468  c-0.001-0.001,0.651-0.235,1.126-0.234C33.667,14,34,14.125,34,14.5C34,14.75,33.95,15,33.95,15z"/>
<path style="fill:#B0BEC5;" d="M23,30.505l-3.426,3.374c0,0-0.149,0.115-0.348,0.12c-0.069,0.002-0.143-0.009-0.219-0.043  l0.964-5.965L23,30.505z"/>
<path style="fill:#CFD8DC;" d="M29.897,18.196c-0.169-0.22-0.481-0.26-0.701-0.093L16,26c0,0,2.106,5.892,2.427,6.912  c0.322,1.021,0.58,1.045,0.58,1.045l0.964-5.965l9.832-9.096C30.023,18.729,30.064,18.416,29.897,18.196z"/>
</svg>
